{ "compressionlevel":-1,
  "width":50, "height":40,
  "tilewidth":16, "tileheight":16,
  "infinite":false,
  "orientation":"orthogonal",
  "renderorder":"right-down",
  "type":"map",
  "version":"1.10",
  "tiledversion":"1.10.2",
  "nextlayerid":3,
  "nextobjectid":1,
  "tilesets":[
    { "firstgid":1,
      "name":"sunnyside",
      "image":"../tilesets/spr_tileset_sunnysideworld_16px.png",
      "imagewidth":1024, "imageheight":1024,
      "tilewidth":16, "tileheight":16,
      "columns":64, "tilecount":4096,
      "margin":0, "spacing":0 }
  ],
  "layers":[
    { "id":1, "name":"ground", "type":"tilelayer", "visible":true, "opacity":1,
      "x":0, "y":0, "width":50, "height":40,
      "data":[66,131,66,66,66,66,66,66,66,66,66,66,135,135,66,66,132,66,66,134,66,66,135,66,66,66,66,66,66,66,66,66,66,135,66,133,66,66,66,66,66,66,66,66,66,66,66,66,66,66,66,66,66,66,66,66,66,66,66,66,66,132,66,66,66,131,66,66,66,66,66,132,66,132,66,133,66,66,66,66,66,66,134,66,130,66,66,66,66,66,66,66,66,66,66,66,66,66,66,132,66,66,66,132,66,66,66,66,66,66,66,66,132,66,66,133,66,66,66,66,66,66,66,66,133,66,66,66,66,133,66,130,66,66,66,66,131,66,66,66,66,131,66,66,135,66,66,66,66,66,66,66,66,66,66,66,66,66,132,130,66,66,135,66,66,66,66,66,66,66,66,66,66,66,66,66,66,66,66,66,66,66,66,66,66,66,66,130,66,66,131,66,66,66,66,66,134,66,66,132,66,66,66,133,66,66,66,66,66,66,132,66,133,66,66,66,131,66,130,66,66,131,66,66,66,66,66,66,66,133,66,66,130,66,66,66,66,66,66,66,66,66,66,66,66,66,66,66,66,66,66,66,66,66,130,66,66,66,66,66,135,66,66,66,134,66,66,66,66,66,66,66,132,66,66,66,66,133,66,66,66,66,132,66,66,66,66,131,66,66,66,66,135,66,66,66,66,66,66,66,130,66,66,66,66,66,66,66,66,66,66,66,132,66,130,66,130,66,66,66,66,66,66,66,66,66,66,66,66,66,66,66,66,66,66,66,66,66,66,66,66,66,66,66,135,66,66,66,66,66,66,66,66,135,66,66,66,66,66,66,66,66,135,66,66,66,66,66,66,66,66,66,66,66,66,66,66,66,66,66,66,66,66,66,66,66,66,66,132,66,66,66,66,66,66,130,66,66,66,66,66,66,66,66,135,66,66,66,66,66,131,66,66,66,66,66,66,132,66,66,66,66,66,133,66,66,66,66,66,66,66,66,66,66,66,66,66,66,66,66,66,66,66,66,66,66,66,66,66,66,66,66,66,66,66,66,66,66,66,66,132,66,66,131,134,132,66,66,66,66,66,66,66,66,66,66,66,66,66,66,135,66,66,66,66,130,66,66,66,66,66,66,66,66,66,66,66,66,66,66,130,66,131,66,66,135,66,66,66,66,66,66,133,66,66,66,66,66,66,66,66,66,66,66,134,66,66,66,66,66,66,66,130,66,66,66,66,66,66,66,132,66,66,66,66,66,66,66,66,66,134,66,66,66,130,66,66,66,66,66,66,66,66,66,66,66,66,66,66,66,66,66,66,66,66,66,66,66,66,133,130,66,66,66,66,66,66,132,66,66,66,66,66,66,66,132,134,66,66,66,66,66,66,66,66,66,66,66,66,66,66,66,66,66,66,66,66,66,66,66,66,66,66,66,66,66,134,66,135,66,66,66,133,131,66,66,66,66,66,66,66,66,66,66,66,66,66,66,66,66,66,66,134,66,66,66,66,66,66,130,66,66,66,66,66,66,66,66,66,66,66,66,66,66,66,66,66,66,66,66,66,66,133,66,66,66,134,66,66,135,66,66,66,66,132,66,66,66,131,66,66,131,66,130,66,66,66,66,66,66,66,66,130,66,66,66,66,66,66,66,66,66,66,66,135,132,134,66,66,66,131,66,66,66,66,66,66,66,66,66,66,66,66,133,134,66,66,66,66,135,66,66,66,66,66,66,66,130,66,66,66,132,66,133,66,66,66,66,66,66,66,66,66,130,134,66,66,66,66,130,66,66,66,135,66,66,66,66,66,66,66,66,66,66,66,66,66,66,66,66,66,66,66,66,66,132,66,66,66,66,66,66,66,66,66,66,66,131,66,66,66,66,66,66,66,66,66,66,132,66,66,66,130,66,66,66,66,133,66,66,66,66,66,132,131,66,66,66,66,66,130,66,66,66,66,66,66,66,66,66,66,66,66,66,133,132,66,135,131,66,66,66,66,66,66,66,66,66,66,66,66,66,66,66,66,66,66,66,66,66,66,66,134,66,66,135,66,66,66,66,66,66,131,66,66,66,66,66,133,66,66,66,66,66,66,66,131,66,66,66,66,66,66,66,66,66,66,66,66,66,66,66,66,66,66,66,130,66,66,66,66,66,66,66,66,66,131,66,66,66,66,66,66,66,66,66,130,135,66,66,131,130,66,66,131,66,66,66,66,66,66,133,66,66,66,66,66,135,66,66,66,66,66,131,66,66,66,66,131,66,66,66,66,66,66,66,66,132,132,66,66,66,66,66,66,66,66,66,66,66,66,66,66,66,66,134,66,66,66,66,66,66,66,66,66,66,66,66,132,66,66,66,66,130,66,66,130,66,131,130,66,66,66,66,66,66,66,132,66,135,66,66,66,66,66,66,66,66,134,66,66,130,66,66,66,66,66,132,132,66,66,66,66,66,132,66,66,66,66,66,66,66,66,66,66,66,66,134,66,66,66,66,66,66,66,66,66,132,66,66,66,66,66,130,66,66,66,135,66,134,66,66,66,66,66,66,66,66,66,66,66,66,66,66,66,66,134,66,66,66,66,66,66,66,66,66,66,66,66,66,66,66,66,66,66,66,66,66,66,66,66,66,66,66,66,66,66,66,66,130,134,66,66,66,66,66,66,66,66,66,134,66,133,66,66,66,66,66,66,66,66,66,66,66,66,66,130,66,66,66,66,66,66,66,66,66,66,66,66,135,134,66,66,135,66,66,66,66,66,66,66,66,66,66,66,66,66,66,66,66,66,66,66,66,66,66,133,66,66,66,66,66,66,66,66,66,133,66,66,66,66,133,133,66,66,66,66,66,66,66,66,66,133,66,66,66,66,66,66,66,66,66,131,66,66,66,134,66,66,66,66,66,66,66,66,66,66,66,66,66,66,66,66,66,66,66,66,66,66,134,66,66,66,66,66,66,66,66,66,135,66,66,66,66,66,66,134,66,66,66,134,66,66,66,66,66,66,135,66,66,66,134,66,66,66,66,66,66,66,66,66,135,66,66,66,66,133,66,66,66,134,66,66,66,66,66,66,66,66,132,66,66,66,66,66,66,66,66,66,66,66,66,66,66,66,66,66,66,66,66,66,66,66,66,66,134,66,135,66,66,66,66,66,66,66,66,133,66,132,66,66,66,66,133,66,66,132,66,66,66,132,66,66,66,131,66,66,66,66,66,130,66,134,66,66,66,66,66,66,66,66,66,132,66,66,66,66,66,66,66,66,66,66,66,66,66,132,66,134,132,66,66,66,66,66,66,66,66,66,66,66,66,66,66,66,66,66,66,66,66,66,66,66,66,66,130,66,66,66,66,66,66,66,66,132,66,66,130,66,66,66,66,133,66,133,66,66,66,66,66,66,133,66,134,66,66,66,133,66,66,66,66,66,133,66,66,66,66,66,66,66,66,134,66,66,66,130,134,66,66,66,66,66,66,66,66,66,66,131,66,66,130,135,135,66,66,66,66,66,66,66,66,66,66,66,66,66,66,66,66,66,66,66,66,66,66,66,66,66,66,66,66,66,66,66,66,66,132,131,66,66,66,66,66,66,135,66,66,66,66,66,66,66,66,66,66,66,66,130,66,66,135,134,66,66,66,66,66,66,66,66,66,66,66,66,66,66,132,66,66,66,66,66,66,66,66,66,66,131,132,66,66,66,66,66,66,66,66,66,66,66,66,66,66,66,66,66,66,66,66,66,66,66,66,133,66,66,66,66,66,66,66,66,133,130,134,66,66,66,66,66,66,66,66,131,66,66,66,66,66,66,66,66,66,66,66,66,132,132,133,66,66,66,66,66,66,132,66,66,66,66,66,134,134,66,66,66,66,66,66,66,66,66,66,130,66,66,131,66,132,66,66,66,130,66,66,66,66,66,66,66,66,66,66,66,66,66,66,66,66,66,66,66,66,66,66,66,66,66,66,66,132,66,66,133,66,66,66,66,66,132,66,66,135,66,66,66,66,66,133,66,66,66,66,131,66,66,66,66,66,66,66,66,66,66,66,66,66,66,66,66,66,66,66,66,66,66,66,134,66,66,66,130,66,66,66,130,66,66,66,66,66,66,135,134,66,66,66,66,66,130,66,66,131,131,131,66,66,66,66,66,66,66,66,66,66,66,66,66,135,132,66,66,66,66,66,135,66,66,66,66,134,131,66,66,66,66,66,66,66,132,66,131,66,66,66,66,135,66,66,66,66,66,66,66,66,132,66,134,66,66,66,66,66,66,66,66,66,66,66,130,66,66,66,66,134,66,66,66,66,66,133,66,66,66,66,66,66,66,132,66,66,132,66,66,131,66,66,66,66,66,66,66,66,66,66,66,66,66,66,66,66,66,66,66,66,135,66,66,131,66,66,66,66,66,66,66,66,66,66,66,66,66,66,66,66,134,66,66,66,66,133,66,66,66,66,66,66,66,66,66,66,66,66,66,66,66,66,66,133,66,66,66,66,66,66,135,133,66,66,66,134,66,66,66,66,66,66,66,66,66,66,66,66,66,66,66,66,134,130] },
    { "id":2, "name":"obstacles", "type":"tilelayer", "visible":true, "opacity":1,
      "x":0, "y":0, "width":50, "height":40,
      "data":[0,0,0,0,0,0,0,0,0,0,0,0,0,0,0,0,0,0,0,0,0,0,0,0,0,0,0,0,0,0,0,0,0,0,0,0,0,0,0,0,0,0,0,0,0,0,0,0,0,0,0,0,0,0,0,0,0,0,0,0,0,0,0,0,0,0,0,0,0,0,0,0,0,0,0,0,0,0,0,0,0,0,0,0,0,0,0,0,0,0,0,0,0,0,0,0,0,0,0,0,0,0,0,0,0,0,0,0,0,0,0,0,0,0,0,0,0,0,0,0,0,0,0,0,0,0,0,0,0,0,0,0,0,0,0,0,0,0,0,0,0,0,0,0,0,0,0,0,0,0,0,0,0,0,0,0,0,0,0,0,0,0,0,0,0,0,0,0,0,0,0,0,0,0,0,0,0,0,0,0,0,0,0,0,0,0,0,0,0,0,0,0,0,0,0,0,0,0,0,0,0,0,0,0,0,0,0,0,0,0,0,0,0,0,0,0,0,0,0,0,0,0,0,0,0,0,0,0,0,0,0,0,0,0,0,0,0,0,0,0,0,0,0,0,0,0,0,0,0,0,0,0,0,0,0,0,0,0,0,0,0,0,0,0,0,0,0,0,0,0,0,0,0,0,0,0,0,0,0,0,0,0,0,0,0,0,0,0,0,0,0,0,0,0,0,0,0,0,0,0,0,0,0,0,0,0,0,0,1464,0,0,0,0,0,0,0,0,0,0,0,0,0,1592,0,0,0,0,0,0,0,0,0,0,0,0,0,0,0,0,0,0,0,0,0,0,0,0,0,0,0,0,0,0,0,0,0,0,0,0,0,0,0,0,0,0,0,0,0,0,0,0,0,0,0,0,0,0,0,0,0,0,0,0,0,0,0,0,0,0,0,0,0,0,0,0,0,0,0,0,0,0,0,0,0,0,0,0,0,0,0,0,0,0,0,0,0,0,0,0,0,0,0,0,0,0,0,0,0,0,0,0,0,0,0,0,0,0,0,0,0,1976,0,0,0,0,0,0,0,0,0,0,0,0,0,0,0,0,0,0,0,0,0,0,0,0,0,0,0,0,0,0,0,0,0,0,0,0,0,0,0,0,0,0,0,0,0,0,0,0,0,0,0,0,0,0,0,0,0,0,0,0,0,0,0,0,0,0,0,0,0,0,0,0,0,1592,0,0,0,0,0,0,0,0,0,0,0,0,0,0,0,0,0,0,0,0,0,0,0,0,0,0,0,0,0,0,0,0,0,0,0,0,0,0,0,0,0,0,0,0,0,0,0,0,0,0,0,0,0,0,0,0,0,0,0,0,0,0,0,0,0,0,0,0,0,0,0,0,0,0,0,0,0,0,0,0,0,0,0,0,0,0,0,0,0,0,0,0,0,0,0,0,0,0,0,0,0,0,0,0,0,0,0,0,0,0,0,0,0,0,0,1592,0,0,0,0,0,0,0,0,0,0,0,0,0,0,0,0,0,0,0,0,0,0,0,0,0,0,0,0,0,0,0,0,0,0,0,0,0,0,0,0,0,0,0,0,0,0,0,0,0,0,0,0,0,0,0,0,0,0,0,0,0,0,0,0,0,0,0,0,0,0,0,0,0,0,0,0,0,0,0,0,0,0,0,0,0,0,0,0,0,0,0,0,0,0,0,0,0,0,0,0,0,0,0,0,0,0,0,0,0,0,0,0,0,1464,0,0,0,0,0,0,0,0,0,0,0,0,0,0,0,0,0,0,0,0,0,0,0,0,0,0,0,0,0,0,0,0,0,0,0,0,0,0,0,0,0,0,0,0,0,0,0,0,0,0,0,0,0,0,0,0,0,0,0,0,0,0,0,0,0,0,0,0,0,0,0,0,0,0,0,0,0,0,0,0,0,0,0,0,0,0,0,0,0,0,0,0,0,0,0,0,0,0,0,0,0,0,0,0,0,0,0,0,0,0,0,0,0,0,0,0,0,0,0,0,0,0,0,0,0,0,0,0,0,0,0,0,0,0,0,0,0,0,0,0,0,0,0,0,0,0,0,0,0,0,0,0,0,0,0,0,0,0,0,0,0,0,0,0,0,0,0,0,0,0,0,0,0,0,0,0,0,0,0,0,0,0,0,0,0,0,0,0,0,0,0,0,0,0,0,0,0,0,0,0,0,0,0,0,0,0,0,0,0,0,0,0,0,0,0,0,0,0,0,0,0,0,0,0,0,0,0,0,0,0,0,0,0,0,0,0,0,0,0,0,0,0,0,0,0,0,0,0,0,0,0,0,0,0,0,0,0,0,0,0,0,0,0,0,0,0,0,0,0,0,0,0,0,0,0,0,0,0,0,0,0,0,0,0,0,0,0,0,0,0,0,0,0,0,0,0,0,0,0,0,0,0,0,0,0,0,0,0,0,0,0,0,0,0,0,0,0,0,0,0,0,0,0,0,0,0,0,0,0,0,0,0,0,0,0,0,0,0,0,0,0,0,0,0,0,0,0,0,0,0,0,0,0,0,0,0,0,0,0,0,0,1976,0,0,0,0,0,0,0,0,0,0,0,0,0,0,0,0,0,0,0,0,0,0,0,0,0,0,0,0,0,0,0,0,0,0,0,0,0,0,0,0,0,0,0,0,0,0,0,0,0,0,0,0,0,0,0,0,0,0,0,0,0,0,0,0,0,0,0,0,0,0,0,0,0,0,0,0,0,0,0,0,0,0,0,0,0,0,0,0,0,0,0,0,0,0,0,0,0,0,0,0,0,0,0,0,0,0,0,0,0,0,0,0,0,0,0,0,0,0,0,0,0,0,0,0,0,0,0,0,0,0,0,1976,0,0,0,0,0,0,0,0,0,0,0,0,0,0,0,0,0,0,0,0,0,0,0,0,0,0,0,0,0,0,0,0,0,0,0,0,0,0,0,0,0,0,0,0,0,0,0,0,0,0,0,0,0,0,0,0,0,0,0,0,0,0,0,0,0,0,0,0,0,0,0,0,0,0,0,0,0,0,0,0,0,0,0,0,0,0,0,0,0,1464,1592,0,0,0,0,0,0,0,0,0,0,0,0,0,0,0,0,0,0,0,0,0,0,0,0,0,0,0,0,0,0,0,0,0,0,0,0,0,0,0,0,0,0,0,0,0,0,0,0,1976,0,0,0,0,0,0,0,0,0,0,0,0,0,0,0,0,0,0,0,0,0,0,0,0,0,0,0,0,0,0,0,0,0,0,0,0,0,0,0,0,0,0,0,0,0,0,0,0,0,0,0,0,0,0,0,0,0,0,0,0,0,0,0,0,0,0,0,1464,0,0,0,0,0,0,0,0,0,0,0,0,0,0,0,0,0,0,0,0,0,0,0,0,0,0,0,0,0,0,0,0,0,0,0,0,0,0,0,0,0,0,0,0,0,0,0,0,0,0,0,0,0,0,0,0,0,0,0,0,0,0,0,1592,0,0,0,0,0,0,0,0,0,0,0,0,0,0,0,0,0,0,0,0,0,0,0,0,0,0,0,0,0,0,0,0,0,0,0,0,0,0,0,0,0,0,0,0,0,0,0,0,0,0,0,0,0,0,0,0,0,0,0,0,0,0,0,0,0,0,0,0,0,0,0,0,0,0,0,0,0,0,0,0,0,0,0,0,0,0,0,0,0,0,0,0,0,0,0,0,0,0,0,0,0,0,0,0,0,0,0,0,0,0,0,0,0,0,0,0,0,0,0,0,0,0,0,1464,0,0,0,0,0,0,0,0,0,0,0,0,0,0,0,0,0,0,0,0,0,0,0,0,0,0,0,0,0,0,0,0,0,0,0,0,0,0,0,0,0,0,0,0,0,0,0,0,0,0,0,0,0,0,0,0,0,0,0,0,0,0,0,0,0,0,0,0,0,0,0,0,0,0,0,0,0,0,0,0,0,0,0,1976,0,0,0,0,0,0,0,0,0,0,0,0,0,0,0,0,0,0,0,0,0,0,0,0,0,0,0,0,0,0,0,0,0,0,0,0,0,0,0,0,0,0,0,0,0,0,0,0,0,0,0,0,0,0,0,0,0,0,0,0,0,0,0,0,0,0,0,0,0,0,0,0,0,0,0,0,0,0,0,0,0,0,0,0,0,0,0,0,0,0,0,0,0,0,0,0,0,0,0,0,0,0,0,0,0,0,0,0,0,0,0,0,0,0,0,0,0,0,0,0,0,0,0,0,0,0,0,0,0,0,0,0,0,0,0,0,0,0,0,0,0,0,0,0,0,0,0,0,0,0,0,0,0,0,0,0,0,0,0,0,0,0,0,0,0,0,0,0,0,0,0,0,0,0,0,0,0,0,0,0,0,0,0,0,0,0,0,0,0,0,0,0,0,0,0,0,0,0,0,0,0,0,0,0,0,0,0,0,0,0,0,0,0,0,0,0,0,0,0,0,0,0,0,0,0,0,0,0,0,0,0,0,0,0,0,0,0,0,0,0,0,0,0,0,0,0,0,0,0,0,0,0,0,0,0,0,0,0,0,0,0,0,0,0,0,0,0,0,0,0,0,0,0,0,0,0,0,0,0,0,0] }
  ]
}